luts/arctic-spektrafilm-adobergb/luts/lut_v032_gold200_supraendura_adobergb.cube
# ============================================================================
# spektrafilm LUT
# Bundle:  spektrafilm_v032_gold200_supraendura_1lut_adobergb_adobergb  (1lut, 33^3)
# Film:    kodak_gold_200
# Print:   kodak_supra_endura
# Input:   Adobe RGB  (cctf on)
# Output:  Adobe RGB  (cctf on)
# Created: 2026-05-28T08:02:25Z
# spektrafilm: 0.3.2
# Project: https://github.com/andreavolpato/spektrafilm
#
# Copyright (c) 2026 Andrea Volpato. Generated by spektrafilm. Licensed under CC BY-SA 4.0.
#
# License: spektrafilm LUT by Andrea Volpato, licensed under CC BY-SA 4.0.
#          Full text and attribution requirements in SPEKTRAFILM_LICENSE.txt
#          (shipped in this bundle); also at
#          https://github.com/andreavolpato/spektrafilm/blob/main/SPEKTRAFILM_LICENSE.txt.
#
# Citation: If you use this LUT in your work, please cite the spektrafilm
#           project: https://github.com/andreavolpato/spektrafilm, see
#           CITATION.cff for details.
#
# Notes: Generated by the spektrafilm LUT bundle builder. Apply with trilinear
#        or tetrahedral interpolation in your host (DaVinci Resolve, Nuke,
#        OCIO-aware DCC). The input and output color spaces are declared in
#        bundle.json; do NOT apply this LUT to a signal in a different color
#        space.
#
# File: lut_v032_gold200_supraendura.cube  (see sibling bundle.json for full metadata)
# ============================================================================
TITLE "v032_gold200_supraendura"
DOMAIN_MIN 0 0 0
DOMAIN_MAX 1 1 1
LUT_3D_SIZE 5
0.1033730216 0.1054774844 0.1084658828
0.433278093 0.108860836 0.09807853714
0.6165548324 0.1182484184 0.09234850463
0.6766896596 0.165941818 0.09266828482
0.7274250288 0.2491293406 0.0943636499
0.1256538564 0.3274228826 0.1255632652
0.3359531962 0.3256181886 0.113706125
0.6891304097 0.2708464635 0.09321547714
0.7316402422 0.2849671335 0.09333184278
0.7686560709 0.3517934218 0.09490978718
0.2922753619 0.509412354 0.1117348628
0.4163079334 0.5537346621 0.1018429242
0.7517430614 0.6179197977 0.09516255182
0.8467302168 0.6030676718 0.09500708471
0.85854694 0.6029602187 0.09651546735
0.5517821336 0.6328301445 0.09775636243
0.5973482559 0.6511301898 0.09728336639
0.7574757163 0.7019043758 0.0964777479
0.8761148231 0.7315618932 0.09702135969
0.9036972643 0.7395934856 0.1003113402
0.7080970241 0.698680133 0.09664580616
0.7279200967 0.7084983671 0.09681882781
0.8004214421 0.7412878047 0.09792535598
0.8812938576 0.7736665949 0.1013935215
0.9176088597 0.7938505543 0.1155953124
0.09382222202 0.1111407925 0.4390221811
0.3733694154 0.1257015309 0.3455242244
0.6265608287 0.1195073526 0.3396713737
0.6923667313 0.1609727692 0.2717686096
0.7351054902 0.2472547672 0.2392165158
0.09335794505 0.3933304233 0.4444507083
0.3619662918 0.3672157608 0.3663326621
0.6957716591 0.2959262244 0.2647040207
0.7483463037 0.3008148928 0.2297002328
0.7796863428 0.3651066578 0.2284510657
0.2647593969 0.6175464644 0.3444732736
0.4177895126 0.6669406117 0.3474081657
0.7821089306 0.7025897913 0.2616624742
0.8690549491 0.6635117804 0.2113366127
0.8737268922 0.6481565708 0.2256374282
0.5477534497 0.7143331745 0.2176380445
0.6003453954 0.7380714413 0.2474476219
0.7714461711 0.7857134864 0.2722499874
0.8925625528 0.7980538582 0.2544953275
0.9133025106 0.7909602881 0.262681824
0.7118909089 0.7599201368 0.1640518722
0.7330965721 0.7727888869 0.195760781
0.807592401 0.8062119207 0.267439373
0.8871367108 0.8309380859 0.3137235593
0.9189110165 0.8390722926 0.3382558968
0.09412951569 0.2522016487 0.6396745221
0.4092260137 0.2198399851 0.6912535225
0.6573020886 0.1936427605 0.6603712381
0.7329177158 0.2737070824 0.6849413263
0.774482332 0.3818666579 0.7115945753
0.0974206921 0.4484632434 0.7078093957
0.384327572 0.4760627164 0.7557712358
0.7161383859 0.4150364305 0.7110355927
0.7777400929 0.4277055493 0.7082393194
0.8042521264 0.4848074689 0.7174639844
0.2560049787 0.6964265033 0.781418239
0.4239176146 0.7362472386 0.7843359085
0.7793798272 0.7725816465 0.7626888662
0.8641934814 0.7460564772 0.7305742408
0.8714467329 0.7264715843 0.713918603
0.5317251309 0.808135604 0.7801664891
0.5891012299 0.8226139893 0.7790456351
0.7685194443 0.8593000845 0.76639224
0.8875961944 0.8693732774 0.7328957377
0.9068810153 0.8592746443 0.7068817011
0.6935734088 0.8516233194 0.7454451306
0.7186983985 0.8577967627 0.7486302787
0.7994238352 0.8754438786 0.7500803573
0.8810323388 0.8896314119 0.7386105509
0.9120926884 0.8910576851 0.7187965238
0.149834232 0.4745953731 0.7897575517
0.4064113184 0.4951112608 0.813926547
0.7407929004 0.4315436319 0.8051526943
0.780155555 0.4390407623 0.8015181102
0.8124269799 0.5206220348 0.8198447225
0.1813300869 0.5613998705 0.8123677262
0.4400061494 0.6113316277 0.839234552
0.7707366159 0.5817749615 0.8370301192
0.8120066114 0.5590199257 0.8257891208
0.8336169736 0.6007828936 0.8339177347
0.3773081922 0.7391300403 0.8559303713
0.526630525 0.7754270019 0.8681102121
0.7899456119 0.8008234772 0.8725231242
0.8676356441 0.7818515459 0.8623575875
0.8777479277 0.7726556705 0.8585679053
0.5631897365 0.8256009484 0.8735230523
0.6174692296 0.8390044704 0.8757702716
0.7784451656 0.8721515923 0.87908709
0.8861913832 0.8842667866 0.8744790573
0.9041844785 0.8781077535 0.8663099084
0.7048095295 0.8669087875 0.8781529524
0.7309924558 0.8729071132 0.878910365
0.805643765 0.8887330848 0.879358055
0.8812530649 0.9024586199 0.8760838057
0.9090826217 0.9047082716 0.866746351
0.3711955904 0.6448958736 0.8486251969
0.501221042 0.6681329315 0.8600473349
0.7885324488 0.652980683 0.865659222
0.8346217475 0.6300411237 0.8608275901
0.8443336242 0.6434499703 0.862447889
0.386418548 0.6844124737 0.8565660902
0.5253377147 0.7175766215 0.8694409347
0.7955747463 0.7162818181 0.8763885502
0.8494633805 0.6906048833 0.871408138
0.8564891218 0.6912511419 0.8705067703
0.5146301247 0.78744725 0.8795682657
0.6020389409 0.8072671703 0.8858681818
0.8047440227 0.8337688683 0.8939060663
0.8785193673 0.8197103884 0.8913497496
0.8857022244 0.8076477148 0.8883761519
0.6304094876 0.8443577505 0.8914805772
0.6794303616 0.8557978018 0.894346006
0.8057456906 0.8810070179 0.8999743929
0.889221396 0.8909773448 0.9011475931
0.9051625836 0.8872169446 0.8992110205
0.7314143512 0.874771754 0.8979103188
0.7545498452 0.8799626182 0.8989427009
0.8200798744 0.8937440782 0.9013810072
0.884434943 0.9056062154 0.9026313791
0.9088435965 0.9082174051 0.9015202446
