luts/arctic-spektrafilm-adobergb/luts/lut_v032_gold200_supraendura_adobergb.cube
# ============================================================================
# spektrafilm LUT
# Bundle:  spektrafilm_v032_gold200_supraendura_1lut_adobergb_adobergb  (1lut, 33^3)
# Film:    kodak_gold_200
# Print:   kodak_supra_endura
# Input:   Adobe RGB  (cctf on)
# Output:  Adobe RGB  (cctf on)
# Created: 2026-05-28T08:02:25Z
# spektrafilm: 0.3.2
# Project: https://github.com/andreavolpato/spektrafilm
#
# Copyright (c) 2026 Andrea Volpato. Generated by spektrafilm. Licensed under CC BY-SA 4.0.
#
# License: spektrafilm LUT by Andrea Volpato, licensed under CC BY-SA 4.0.
#          Full text and attribution requirements in SPEKTRAFILM_LICENSE.txt
#          (shipped in this bundle); also at
#          https://github.com/andreavolpato/spektrafilm/blob/main/SPEKTRAFILM_LICENSE.txt.
#
# Citation: If you use this LUT in your work, please cite the spektrafilm
#           project: https://github.com/andreavolpato/spektrafilm, see
#           CITATION.cff for details.
#
# Notes: Generated by the spektrafilm LUT bundle builder. Apply with trilinear
#        or tetrahedral interpolation in your host (DaVinci Resolve, Nuke,
#        OCIO-aware DCC). The input and output color spaces are declared in
#        bundle.json; do NOT apply this LUT to a signal in a different color
#        space.
#
# File: lut_v032_gold200_supraendura.cube  (see sibling bundle.json for full metadata)
# ============================================================================
TITLE "v032_gold200_supraendura"
DOMAIN_MIN 0 0 0
DOMAIN_MAX 1 1 1
LUT_3D_SIZE 33
0.1033730216 0.1054774844 0.1084658828
0.103390183 0.1054806874 0.1084670234
0.1039471026 0.1055915825 0.1085046316
0.1097036581 0.1066199448 0.1088022113
0.140641566 0.1102332437 0.1093373968
0.2131562335 0.1146086896 0.1085501427
0.3044752167 0.1156852353 0.1055049354
0.3771199462 0.1130531929 0.1017302962
0.433278093 0.108860836 0.09807853714
0.4765346653 0.1051669295 0.09516910509
0.5107619212 0.1041524467 0.09370695254
0.5377565467 0.1050810987 0.09305199066
0.5593134483 0.1068171787 0.09272542114
0.5773464091 0.1090433743 0.09253575123
0.5924140696 0.1117165224 0.09243399646
0.6051049224 0.114643499 0.09237910432
0.6165548324 0.1182484184 0.09234850463
0.6272138115 0.1227869376 0.09233877913
0.6365876259 0.1277588202 0.09235812329
0.6446937458 0.1329568999 0.09237029199
0.6519961989 0.1387829552 0.09241996427
0.6587403795 0.1450720131 0.09245588078
0.6649416727 0.1514895929 0.09251645789
0.6706968519 0.1583291689 0.09258261538
0.6766896596 0.165941818 0.09266828482
0.6829513241 0.1747688019 0.0927631251
0.6890087016 0.1837012935 0.09289485703
0.6948359008 0.1926275155 0.09302611987
0.7004053957 0.201403385 0.09318107035
0.7065763817 0.2117263383 0.09341638918
0.7132281253 0.223240484 0.09366470716
0.7203368463 0.2361664468 0.09398130622
0.7274250288 0.2491293406 0.0943636499
0.1033771852 0.1055022405 0.1084727678
0.1033796626 0.1055005204 0.1084723345
0.1036958242 0.1055645446 0.108494852
0.1078383888 0.1063463295 0.1087298531
0.1340700312 0.1096750997 0.1093140367
0.2050168496 0.1143909878 0.1087389604
0.2970642582 0.1159320648 0.1058448565
0.372341292 0.1135525448 0.1020349975
0.4301321212 0.109469159 0.09832451348
0.4750720391 0.1055482685 0.09526906043
0.510119685 0.1045494378 0.09374208674
0.5377660812 0.1055385254 0.0930643438
0.5594935292 0.1072952521 0.09273149736
0.5777463341 0.1095988509 0.09254059189
0.5928632002 0.1123168712 0.09243808476
0.6056059062 0.1152923134 0.09238530608
0.6171326726 0.1189866362 0.09235044921
0.6278513654 0.1236524676 0.0923450511
0.6371879274 0.1286311099 0.09236505486
0.6452749746 0.1338196352 0.09237599661
0.6525638012 0.1396942218 0.0924279873
0.6593101215 0.1460263972 0.09246013659
0.6654444617 0.1523900038 0.09252296816
0.6712093875 0.1592721425 0.09258957263
0.6772152851 0.1669337739 0.0926720561
0.6834743751 0.1757896041 0.09276789701
0.6895028114 0.1847035661 0.09289890104
0.6952648728 0.1935279988 0.09303404343
0.70085424 0.2023811056 0.09319123227
0.7070071853 0.2126792301 0.09342587231
0.7137212978 0.2243341905 0.09366747089
0.7208170128 0.2372892509 0.09399183628
0.7278554707 0.2501468335 0.09436710903
0.1035036724 0.1062401828 0.1086727622
0.1035030988 0.1062328203 0.1086710745
0.1035856065 0.1061463493 0.108649774
0.1054834717 0.106417446 0.1087388828
0.1228383791 0.1089463422 0.1092892764
0.1841936381 0.1139775003 0.1091984045
0.2745063337 0.1168438849 0.1068538252
0.3571727633 0.1153688255 0.1030064315
0.4213982928 0.1114479385 0.09902522889
0.471754527 0.1073046448 0.09555505527
0.5084041919 0.1063683164 0.09386726186
0.5378487394 0.1073464941 0.0931087785
0.5605221967 0.1092906494 0.09275385567
0.5792533199 0.1117735855 0.09256113997
0.594584379 0.1146296037 0.09245519511
0.6077438408 0.1179472796 0.09240238834
0.619576704 0.1220721753 0.09236069363
0.6301054119 0.1268087161 0.09237122374
0.6392767695 0.1316943532 0.09237359441
0.6473997841 0.137128695 0.09240178965
0.6546740395 0.1430557637 0.0924421126
0.6612167863 0.1492861781 0.0924787088
0.6672502172 0.1556205538 0.09253943747
0.67303074 0.1626567268 0.09261939863
0.6792236139 0.1708004515 0.09269300008
0.6853156537 0.1794460585 0.09279121809
0.6912676709 0.1882981165 0.09291364346
0.6968139954 0.1967323415 0.09304220029
0.702508727 0.2059521363 0.09321288964
0.7085638676 0.2160695953 0.09343580188
0.7154813746 0.2282811525 0.09369144417
0.7224447106 0.2410718437 0.09401062114
0.7294342592 0.2539158709 0.09439260109
0.1042953241 0.1117383098 0.1099750527
0.1043176217 0.111843188 0.1099971005
0.1042841841 0.1110161764 0.1098202281
0.1048873623 0.1099997147 0.1096013502
0.1130434838 0.1104969165 0.1097145206
0.1585309398 0.1150239136 0.1099516702
0.2446296294 0.1194800583 0.1082808006
0.3409622541 0.1196548058 0.1042462538
0.4129935953 0.1162922256 0.0999212934
0.4677239899 0.1120111058 0.09606860344
0.5066312695 0.1107737395 0.09409018725
0.5393304321 0.1118321741 0.09318578232
0.563069247 0.1139643848 0.09280943416
0.582642465 0.1167696702 0.09260559651
0.5991026319 0.1204018322 0.0924876263
0.6125042536 0.1241900163 0.09243703352
0.6240111592 0.1283348541 0.09241146168
0.6342283762 0.1329390981 0.09240314326
0.6434373923 0.1381713111 0.09241732238
0.6514257562 0.1437281541 0.09244258921
0.6584915156 0.1495016747 0.09247820426
0.6647149909 0.155471349 0.09251656545
0.6706913253 0.1619586975 0.09259031913
0.6767561588 0.1695478103 0.0926489325
0.6827993997 0.1777888739 0.09273239055
0.6887686004 0.1863951448 0.09283861834
0.6942396759 0.1944979269 0.09295239009
0.6996756536 0.2027995878 0.09308682061
0.7055210971 0.2125180446 0.09326351598
0.7119069612 0.223447958 0.09347670307
0.7187371134 0.2356643014 0.09374371982
0.7254107266 0.2480056289 0.09404926855
0.7323218843 0.2608238371 0.09443361822
0.106445865 0.1319998798 0.1133578246
0.1064840368 0.1322361124 0.1133902192
0.1064566932 0.1307880915 0.1131915401
0.1065893169 0.1261624867 0.1125270789
0.1100553194 0.1221750714 0.1119002348
0.136407771 0.1231829893 0.1117194653
0.2189036612 0.1288717886 0.1103427861
0.3226631998 0.1310641065 0.1062344997
0.4028619439 0.1284200758 0.1014441171
0.4634014982 0.1237839159 0.09701665026
0.5095693525 0.1218417999 0.09436202134
0.5435964375 0.1228566082 0.09333872492
0.5703250112 0.1253396655 0.09288648739
0.5900931675 0.1280684817 0.09267333635
0.606204516 0.131330917 0.09256589125
0.6193312205 0.1348661301 0.09250392011
0.6310176419 0.1391906061 0.09247847761
0.6412850736 0.144175682 0.09246546456
0.6498439766 0.1490306866 0.09248980895
0.6572227515 0.153959037 0.09249963654
0.6639864334 0.1594592238 0.09253876458
0.6703285305 0.1658110442 0.09258622203
0.6766077359 0.1731255693 0.09264947813
0.6825354618 0.1806737666 0.09271627931
0.68814584 0.1885591845 0.09280462029
0.6934841275 0.1960876496 0.0928926085
0.6987415759 0.2040176058 0.09300293873
0.7044229205 0.2129946322 0.09315382866
0.7104427428 0.2233044342 0.09331687799
0.7169408715 0.2347081881 0.09354628033
0.7234057473 0.246440586 0.09381083673
0.7299040948 0.2585959201 0.09410298094
0.7363992178 0.2706596173 0.09448946508
0.1099815905 0.1761253786 0.11806993
0.1100335866 0.1763581683 0.118090159
0.1100649867 0.1742838318 0.1179086002
0.1101609649 0.1658950586 0.1171398477
0.1124210673 0.1551759995 0.1160541905
0.127952341 0.1479150354 0.1150308696
0.1909454464 0.1519311142 0.1137710636
0.2908923032 0.1555073863 0.1099092267
0.3916286922 0.1541067325 0.1038531861
0.4613446363 0.1486051753 0.09844785811
0.5145956825 0.1450444911 0.09487202085
0.5493491098 0.1444479253 0.09365872761
0.5791010487 0.1456752799 0.09307724023
0.5996274606 0.1474582931 0.09282563939
0.616563799 0.1502226663 0.09268797381
0.6297241876 0.153230978 0.09261925597
0.6406635338 0.1564751604 0.09258574335
0.6500566151 0.1604013053 0.09257356631
0.6582622757 0.164879488 0.0925679258
0.665783555 0.170172554 0.09260916748
0.6727031217 0.1761156886 0.09263494234
0.6790275557 0.1825324302 0.09267939522
0.6845242576 0.1888452492 0.09274209342
0.6897022898 0.1952520132 0.09280375477
0.6947415829 0.2022437595 0.09288155516
0.7001701672 0.2102995424 0.09298919118
0.7055985004 0.2188480772 0.09310631613
0.7115863869 0.2287015298 0.0932419632
0.7174649446 0.239027364 0.09341158509
0.7235390026 0.2497522946 0.0936350568
0.7296294198 0.2609833431 0.09388802163
0.7356286028 0.272287222 0.09418890818
0.7420520004 0.2844146736 0.0945595014
0.1148985412 0.237991149 0.1223932882
0.1149652186 0.2380012629 0.1223925983
0.1151408684 0.2359088746 0.1222702226
0.1155857411 0.2274776488 0.1217625115
0.1179256834 0.2117878887 0.1206975387
0.1298963439 0.19853281 0.11948007
0.1727786146 0.1943661923 0.1179150163
0.2656844784 0.1981763544 0.1141802821
0.3759237937 0.198621678 0.1073667002
0.4553674793 0.1911831169 0.1007983547
0.5162026772 0.1845844851 0.09590191311
0.5586449597 0.1815066538 0.09410299168
0.5900920952 0.1802732409 0.09338505419
0.6130212224 0.179916086 0.09305873902
0.6299255103 0.1804164429 0.09288171669
0.6432943531 0.1818609899 0.09279620648
0.6537658884 0.1835727136 0.09274445218
0.6627830933 0.1861806915 0.09272828974
0.6702855928 0.1893161615 0.09271782717
0.6770482218 0.1931421173 0.09272817395
0.6831295169 0.1976841517 0.09276776012
0.688832262 0.2029112509 0.09280022569
0.6940753445 0.2088572139 0.09285411458
0.6992914058 0.2155265503 0.09292232286
0.704743211 0.2235811306 0.09300862148
0.71018008 0.2320924443 0.09310502517
0.7153757271 0.2404981721 0.09322149722
0.7206536422 0.24924616 0.09336482129
0.7259913871 0.2585957679 0.09352542255
0.7315894596 0.2685263624 0.09373723555
0.7372305623 0.2791082831 0.09399684061
0.7432007496 0.2906260044 0.09427850171
0.7494350687 0.3026699744 0.09466554581
0.1200051637 0.2881605198 0.1246057247
0.1201460291 0.2881527629 0.1246023698
0.1206156472 0.2871958544 0.1245566491
0.121709416 0.2826321771 0.124354907
0.1255828493 0.2732745347 0.123863453
0.1380662631 0.2627716791 0.1230150748
0.1728214494 0.2564985229 0.1214955127
0.2514482849 0.2582252413 0.1178841379
0.3487852776 0.2579421242 0.1116279749
0.4472084325 0.2540288534 0.1033887747
0.5168217255 0.243489283 0.09716644061
0.5685213247 0.2367392023 0.09467040827
0.6011341891 0.2307038786 0.0938126748
0.628149776 0.2264410599 0.09336359018
0.6456447103 0.2230863966 0.0931516301
0.6598388958 0.2220717929 0.09301989437
0.6698200465 0.2210857579 0.09296217894
0.6781605006 0.2211809041 0.0929198496
0.6853337911 0.2227655678 0.09290244028
0.6916907374 0.2254534369 0.09290940727
0.6975912227 0.229276165 0.09294190712
0.7030822152 0.2340176878 0.09297508413
0.7081263106 0.2395242893 0.09302342281
0.7129057836 0.2455438322 0.09308584019
0.7175549788 0.2520668691 0.0931633333
0.7219608261 0.2588056076 0.09325415793
0.7264357396 0.2659213099 0.0933505809
0.7309943841 0.2734622691 0.09349112943
0.7360265741 0.2823264344 0.09365049547
0.7414352878 0.292185121 0.09386004036
0.746944524 0.3027233711 0.09411871074
0.7526039688 0.3138897981 0.09440605789
0.7584883274 0.3255205696 0.09478757306
0.1256538564 0.3274228826 0.1255632652
0.125870515 0.3273967591 0.1255557006
0.12670134 0.3269135771 0.1255180985
0.1290426972 0.3249185072 0.1253950611
0.1342545366 0.3205965377 0.1251139304
0.1483448816 0.3139877204 0.1244260291
0.1811712694 0.3137887641 0.1230396655
0.2470466923 0.3207493139 0.1197214215
0.3359531962 0.3256181886 0.113706125
0.4406212281 0.3277814782 0.1045617539
0.5131815061 0.3161678151 0.09814744639
0.5726586527 0.305895768 0.09527774793
0.6136739861 0.2952247062 0.09421047649
0.6432368658 0.2869105986 0.09371473231
0.6637946821 0.279558604 0.0934487597
0.6788882613 0.2750762099 0.09330802501
0.6891304097 0.2708464635 0.09321547714
0.6968363053 0.2677231382 0.09315338465
0.7036744248 0.2668292076 0.09314185985
0.7094063468 0.2673451425 0.09313373592
0.7146482911 0.2690966658 0.09314436936
0.7194633854 0.2720655899 0.09316936468
0.7237780081 0.2757786084 0.09320881531
0.7276956537 0.2799735658 0.09326932423
0.7316402422 0.2849671335 0.09333184278
0.7354634011 0.2906579948 0.09341691768
0.7394857004 0.296990129 0.09350967312
0.7436671928 0.3040483054 0.09364598922
0.7483531379 0.3122967979 0.09380155877
0.7533543253 0.3215932602 0.09400193328
0.758392268 0.331293453 0.0942679393
0.7634496136 0.3413555177 0.09455081193
0.7686560709 0.3517934218 0.09490978718
0.1328586109 0.3557652765 0.1257369242
0.1332310085 0.3558552738 0.1257238809
0.1345991254 0.3559140497 0.1256730463
0.1376026022 0.3551112176 0.125550521
0.1445689365 0.3533405896 0.1252559047
0.160993352 0.3543087065 0.1245641906
0.1929068765 0.359920095 0.1230615802
0.2507768443 0.3691371016 0.1197010837
0.3283317957 0.3774961892 0.1140137533
0.424945885 0.3870683117 0.1051216129
0.5071268989 0.3861577778 0.09841122238
0.5736433025 0.379632192 0.09564087294
0.6242123719 0.370472247 0.09451935176
0.6566526695 0.3587437211 0.09404169372
0.6826500452 0.3478756808 0.0937453626
0.6989497504 0.3386904851 0.0935895164
0.7103348421 0.33118792 0.09348223173
0.7175745896 0.324071945 0.09342340936
0.7240186041 0.3199515659 0.09337469752
0.7292888602 0.3177820006 0.0933616986
0.7337371449 0.3168981168 0.09336817476
0.737860766 0.3175314437 0.09338501408
0.7415193618 0.3192771126 0.09341891226
0.7447158276 0.3216430035 0.09346486521
0.7479469087 0.3249046708 0.09352428092
0.7511057978 0.3290354236 0.09359316996
0.7544784111 0.3340022159 0.09369105198
0.7580045929 0.3398047172 0.0938150768
0.7620999574 0.3468515727 0.09396867743
0.7664978151 0.3550883388 0.09417034602
0.7710801766 0.3638989832 0.09442174291
0.7756889166 0.3731534532 0.09470273152
0.7803546719 0.3827157242 0.09505453647
0.1422227214 0.3791625684 0.1254744678
0.1427128447 0.379311403 0.1254549304
0.1445884391 0.3797571641 0.1253793244
0.1491183465 0.380670945 0.1251883119
0.1586116542 0.3828491157 0.1247616346
0.1761145633 0.3866109432 0.1239028883
0.2060598962 0.3925089994 0.1222463223
0.2593021767 0.4045725081 0.1186963371
0.3288852541 0.4189016099 0.1129859591
0.4095369132 0.4309567241 0.1051994375
0.4995339064 0.4371193421 0.09854246383
0.5651771343 0.4344078441 0.09605701593
0.6223262778 0.4314846962 0.09487395472
0.6644616433 0.4236416063 0.09431523447
0.6952175899 0.4150677694 0.09402503631
0.7164051452 0.4051270774 0.09384978177
0.7306064478 0.3969504463 0.09374454982
0.7390750319 0.3875561917 0.09367782816
0.7453780436 0.38053 0.09363449366
0.7506814779 0.3758633717 0.09360774399
0.7545464197 0.3721723457 0.0936019956
0.7580331198 0.3702072467 0.09360725979
0.761039831 0.3696964922 0.09363934
0.7635935703 0.3700695099 0.09368259208
0.7660671571 0.3712320845 0.09373694957
0.7685739506 0.3736500618 0.09379931061
0.7713604895 0.3772879001 0.09389322551
0.7742703148 0.3817510346 0.09400180556
0.7777405417 0.3874839799 0.09415596633
0.7814982774 0.3944209878 0.09435694131
0.7855891588 0.4022049484 0.09460442157
0.7895174606 0.4100424089 0.09487389841
0.7935529258 0.4183454086 0.09522034911
0.1562831584 0.4017787684 0.1247421881
0.1569720869 0.4020743087 0.1247080159
0.1597565408 0.4032197486 0.1245674788
0.1653533907 0.405217141 0.1242784833
0.1757911991 0.4081620582 0.123716933
0.1941014509 0.413191547 0.1226486609
0.2234132918 0.4218322936 0.1207180263
0.2729873289 0.4360608069 0.1168774802
0.3344957737 0.4500972522 0.1113179876
0.4042939641 0.4611903658 0.1046120896
0.4900612851 0.4740876798 0.09882284202
0.5557029316 0.4787406067 0.09647270463
0.6174783227 0.4802551212 0.09520553262
0.664880383 0.474511106 0.09458540515
0.6987219011 0.4678972081 0.09428071061
0.7265583014 0.4606649023 0.0940919067
0.744644 0.4537761948 0.09398518501
0.7562605192 0.4456840896 0.09391769461
0.763890629 0.4379855604 0.09386688701
0.7701331249 0.4326967716 0.09384307533
0.7745538135 0.4284540508 0.09382976178
0.7778852988 0.4250810207 0.09384280425
0.7807136715 0.4230871196 0.09386968878
0.782951549 0.4218951129 0.0938997912
0.7848495796 0.4212635486 0.09394783141
0.7866767742 0.4217439049 0.09400434495
0.7888008551 0.4236062298 0.0941036756
0.7910988117 0.42657149 0.09421380262
0.7938325116 0.4306648601 0.09437681816
0.7967924509 0.4356087528 0.09456088546
0.7999712159 0.4411754587 0.09478581674
0.8031130879 0.447183283 0.0950703757
0.8063982953 0.4537410658 0.09539356075
0.1751095402 0.4232496025 0.1234840223
0.175917422 0.4236277384 0.1234348839
0.1791024013 0.4250704244 0.1232384498
0.1857220482 0.42788081 0.12281913
0.1972269185 0.432353977 0.1220598119
0.2152074956 0.4389399917 0.1207904266
0.2449124629 0.4487878095 0.1184934259
0.2902793806 0.4622820287 0.1145227156
0.3449291421 0.4760693502 0.1091460934
0.4076165839 0.4897194428 0.1034877912
0.4855544779 0.5038901453 0.09892054218
0.5467883769 0.5084972402 0.09684379213
0.6089772194 0.5128905319 0.09555944499
0.6601362281 0.5151523406 0.09490953257
0.7006029483 0.5142251867 0.09455858928
0.7308183047 0.5089529053 0.09435430592
0.7530614627 0.500858927 0.09421009062
0.7681158781 0.4939916477 0.09414029051
0.7777370344 0.4867798667 0.09409635776
0.7850959813 0.4816969015 0.09406808843
0.7906317484 0.4774782959 0.09406592967
0.7943753368 0.473606472 0.09407421542
0.7973452145 0.4707030701 0.09408171446
0.7995927061 0.4685048089 0.09411504659
0.8013087081 0.4668145379 0.09415817597
0.8028121347 0.4660579606 0.09422556423
0.8045049453 0.4665756605 0.09430868902
0.8063632073 0.4682609949 0.09442376699
0.8084404581 0.4707852565 0.09456031883
0.8107596702 0.4741401334 0.09476045565
0.813252168 0.4780741958 0.09498093417
0.8157284203 0.4823615355 0.09525868067
0.8182307071 0.4869308176 0.09556600435
0.1986798072 0.4443274905 0.1216215065
0.1995896846 0.4447533372 0.1215549099
0.2029828202 0.4463339528 0.1213042298
0.2099552115 0.4494595697 0.1207761536
0.2212421814 0.4542326965 0.1198938511
0.2399106542 0.4616693625 0.1183575627
0.2700347667 0.472871359 0.1156464645
0.3105202469 0.4863459774 0.1116247852
0.3596300449 0.5003015123 0.1067715686
0.4154629315 0.5128994332 0.1024498483
0.4855213424 0.5269951151 0.09889794942
0.544679332 0.5348890602 0.09705062767
0.601177154 0.5419413054 0.09593119136
0.6539266597 0.5458149334 0.09522236608
0.6974671752 0.5451262374 0.09480800463
0.7289927789 0.5428287973 0.09459757534
0.7575733504 0.5410844862 0.09446072655
0.7770384657 0.5386928187 0.09439207304
0.789583472 0.5324902436 0.09432165662
0.7977783278 0.5261940209 0.09429603797
0.8035561562 0.5199525736 0.09426532536
0.8076718307 0.5149804871 0.09427454776
0.8110346346 0.5118429925 0.0942897708
0.8136060594 0.5093017641 0.0943125464
0.8154174319 0.5071407339 0.09434796265
0.8167990763 0.5056555334 0.09441916068
0.8183001325 0.5053319064 0.0944924229
0.8198990852 0.5061037141 0.0946178435
0.821487616 0.5073884767 0.09475711095
0.8232399566 0.509309823 0.09495415666
0.8250923299 0.5115783215 0.09516752367
0.826939897 0.5142130698 0.09542885189
0.8289243019 0.5173798298 0.09574397666
0.2250487838 0.4651094507 0.1191913973
0.226036295 0.4655688058 0.1191074723
0.2296831644 0.4672391044 0.1187962416
0.236648372 0.4703211007 0.1181921918
0.249135784 0.4756318489 0.1170673484
0.2686131533 0.483467116 0.1152187283
0.2965504422 0.4940032543 0.1123786195
0.3321678302 0.5062652692 0.1087272721
0.3761242484 0.5196651038 0.1048373453
0.4268558614 0.5330346404 0.1015217721
0.4908649584 0.5480179055 0.09873773012
0.546040058 0.5568932491 0.09718166587
0.5959551724 0.5629689134 0.09620766994
0.6475911617 0.5693416897 0.09552313639
0.6924275563 0.5725733191 0.09509759835
0.7280648518 0.5736158163 0.09486055041
0.7569001379 0.571726137 0.09469725282
0.7796236627 0.5685301902 0.09460482651
0.7950480122 0.5650143392 0.09454215781
0.8058383767 0.5607500416 0.09450480566
0.8141927525 0.5581404562 0.09450059067
0.8200307634 0.5549968075 0.09450819203
0.8237457632 0.5513252679 0.09452349912
0.8264804342 0.5480826162 0.09454259825
0.8280212375 0.5444447288 0.09457780002
0.829096714 0.541438664 0.09462594477
0.8302256996 0.5395974981 0.09469778213
0.8313974198 0.5389675627 0.09482005509
0.8326700566 0.5392248806 0.09496036602
0.8340079838 0.5401126016 0.09514361842
0.8355465596 0.5415408169 0.09536665217
0.8371178663 0.5434572934 0.09562902832
0.83888195 0.5459401082 0.09595111217
0.2561078527 0.4868043456 0.1159473624
0.2571487251 0.4872705162 0.1158455003
0.2610060766 0.4889764945 0.1154650575
0.2689020938 0.4924283896 0.1146716052
0.2816393249 0.4977728291 0.113353621
0.2997697196 0.5049783913 0.1114489568
0.3240480022 0.5139668469 0.1089797804
0.3556464793 0.5246905327 0.106111166
0.3947643411 0.536706117 0.1032391772
0.4410410547 0.5495983333 0.1007177347
0.4985311701 0.564030021 0.0985458641
0.5491972021 0.5743036769 0.09726461059
0.5951295048 0.5820701677 0.09642815576
0.6437439975 0.5892174972 0.09577633893
0.6852118816 0.5929062994 0.09537116806
0.7245172925 0.5956110345 0.09508075702
0.753891104 0.596297516 0.09492381031
0.7810629228 0.5970921981 0.09483119065
0.7989705921 0.5949557475 0.09476454083
0.8115968232 0.5908383873 0.09471388117
0.8201953305 0.5861308034 0.09469719319
0.8268881933 0.5825154817 0.09469844924
0.8316938774 0.5794512855 0.09470651834
0.8353345399 0.5773221836 0.0947453362
0.8382513569 0.5759677326 0.09479988121
0.8403677764 0.5748638178 0.09485737619
0.8421191546 0.5741511967 0.09494420559
0.8434141428 0.5736688126 0.09506202263
0.8447159234 0.5737246728 0.09522168017
0.8458385202 0.5740475238 0.09540146339
0.8471194752 0.5748063149 0.09563313272
0.8484460186 0.5761044874 0.09589014372
0.8500001011 0.5779883986 0.09624180734
0.2922753619 0.509412354 0.1117348628
0.2933160846 0.5098675438 0.1116245205
0.29714327 0.5115434967 0.1112200958
0.3044778023 0.5146836798 0.1104560851
0.3157372466 0.5193182888 0.1093167578
0.331736605 0.5255779714 0.1077968069
0.3534499896 0.5335101978 0.1059356424
0.3818772275 0.5430904921 0.1038672668
0.4163079334 0.5537346621 0.1018429242
0.4589018897 0.5658399197 0.09994468736
0.5102884139 0.5791215798 0.0982925762
0.5549664174 0.58888581 0.09727505458
0.5972919644 0.5972899474 0.09657046869
0.6430943802 0.6061617817 0.09599758997
0.6829942376 0.6119964386 0.09561343539
0.7215921814 0.6164458286 0.09533823147
0.7517430614 0.6179197977 0.09516255182
0.7794347288 0.6187130603 0.0950328956
0.8009034512 0.6190818333 0.09498481023
0.8153977306 0.6170538883 0.09495118252
0.82655387 0.6149925858 0.09492260192
0.8344169546 0.6122889823 0.09492412814
0.8400696986 0.609212812 0.09493792921
0.8438429592 0.6057867768 0.09496274738
0.8467302168 0.6030676718 0.09500708471
0.8488680084 0.6008697362 0.09507220555
0.8506435491 0.599908349 0.09517816775
0.8521837064 0.5995201436 0.09530581402
0.8535870343 0.5995362379 0.09546560644
0.8547137211 0.5997932308 0.09566533331
0.8559428843 0.6004674273 0.09589299673
0.8571824245 0.6015451372 0.09617647332
0.85854694 0.6029602187 0.09651546735
0.3276897621 0.5295377201 0.1078470259
0.328627125 0.5299365953 0.1077613946
0.3320660252 0.5314172165 0.1074516869
0.3385818597 0.5341358381 0.1068797112
0.3486173361 0.5381818065 0.1060479371
0.3632814746 0.5438808146 0.1049380327
0.3830364131 0.5511751682 0.1036153313
0.4080650269 0.5597554901 0.1021749367
0.4387734722 0.5695362464 0.1007339136
